X:106
T: Suse, Buebiken, suse,
N: D0159
O: Europa, Mitteleuropa, Deutschland, Provinz Sachsen
N: Grundton ?? ; Inzipit = Variante zum Lied; Variante zu Lied D0158 ?
R: Kinder - Lied
M: 2/4
L: 1/16
K: F
 |  |  |  | A2A2GGG2 | F4C2
C2 | A2A2G2G2 | F4C2z2
A2A2GAG2 | F4C2z2
A2A2A2c2 | c2B2B4
A2A2A2c2 | ccB2B4
A2A2G2G2 | F4C2z2
A2A2G2G2 | F4C2z2

